X: 15
T: New Corn Riggs
%R: reel
B: "Twenty Four Country Dances for the Year 1780", Thomas Skillern, ed. p.8 #1
F: http://www.vwml.org/browse/browse-collections-dance-tune-books/browse-skillerns1780#
Z: 2014 John Chambers <jc:trillian.mit.edu>
M: C|
L: 1/8
K: D
D |\
A>BAF B>cBd | A>BAF FE zF |\
GABc defg | afef d>ed :|\
|: A |\
d>ede fgaA | BcdF FE zc |
dcB^A Bcde | fgfd B>cBd |\
A>BAF B>cBd | A>BAF FE zF |\
GABc defg | afef d>ed :|
%%begintext align
%%   Hands Six round .|. first 3 Chassee with Partners & back
%% again :|. 1st Gent: make the figure of 8 first Lady do the
%% same first 3 Cu. Promenade round .|: Cross over two
%% Cu. lead up to the top & Cast Hands four round with
%% the bottom Right & Left at top :|:
%%endtext

%%sep 1 1 500
%%sep 1 1 500
